svg/shopping-cart.svg

<svg xmlns="http://www.w3.org/2000/svg" viewBox="0 0 60 60" enable-background="new 0 0 60 60"><style type="text/css">.st0{fill:#343434;}</style><title>shopping-cart</title><desc>Created with Sketch.</desc><path class="st0" d="M56 8h-48v-6c0-1.1-.9-2-2-2h-4c-1.1 0-2 .9-2 2s.9 2 2 2h2v42c0 1.1.9 2 2 2h44c1.1 0 2-.9 2-2s-.9-2-2-2h-42v-4h43.6c2.2 0 4.2-1.8 4.6-4l3.3-24c.3-2.2-1.3-4-3.5-4zm-3.8 27.5c0 .2-.4.5-.6.5h-43.6v-24h47.4l-3.2 23.5zM8 54c0 3.3 2.7 6 6 6s6-2.7 6-6-2.7-6-6-6-6 2.7-6 6zm6-2c1.1 0 2 .9 2 2s-.9 2-2 2-2-.9-2-2 .9-2 2-2zM40 54c0 3.3 2.7 6 6 6s6-2.7 6-6-2.7-6-6-6-6 2.7-6 6zm6-2c1.1 0 2 .9 2 2s-.9 2-2 2-2-.9-2-2 .9-2 2-2z"/></svg>

<?xml version="1.0" encoding="utf-8"?>
<!-- Generator: Adobe Illustrator 21.0.0, SVG Export Plug-In . SVG Version: 6.00 Build 0)  -->
<svg version="1.1" id="Layer_1" xmlns="http://www.w3.org/2000/svg" xmlns:xlink="http://www.w3.org/1999/xlink" x="0px" y="0px"
	 viewBox="0 0 60 60" style="enable-background:new 0 0 60 60;" xml:space="preserve">
<style type="text/css">
	.st0{fill:#343434;}
</style>
<title>shopping-cart</title>
<desc>Created with Sketch.</desc>
<g>
	<path class="st0" d="M56,8H8V2c0-1.1-0.9-2-2-2H2C0.9,0,0,0.9,0,2c0,1.1,0.9,2,2,2h2v4v32v6c0,1.1,0.9,2,2,2h8h32h4
		c1.1,0,2-0.9,2-2s-0.9-2-2-2H8v-4h43.6c2.2,0,4.2-1.8,4.6-4L59.5,12C59.8,9.8,58.2,8,56,8z M52.2,35.5c0,0.2-0.4,0.5-0.6,0.5H8V12
		h47.4L52.2,35.5z"/>
	<path class="st0" d="M8,54c0,3.3,2.7,6,6,6s6-2.7,6-6s-2.7-6-6-6S8,50.7,8,54z M14,52c1.1,0,2,0.9,2,2s-0.9,2-2,2s-2-0.9-2-2
		S12.9,52,14,52z"/>
	<path class="st0" d="M40,54c0,3.3,2.7,6,6,6s6-2.7,6-6s-2.7-6-6-6S40,50.7,40,54z M46,52c1.1,0,2,0.9,2,2s-0.9,2-2,2s-2-0.9-2-2
		S44.9,52,46,52z"/>
</g>
</svg>
